T: Shoe The Donkey
M: 3/4
L: 1/8
K: Gmaj
d2 b2 d2 | g4 dg | f2 e2 d2 | A3 B AG |F2 A2 d2 | f4 fe |[1 d2 cd ed | B4 :|[2 d2 cd ef | g4 |]
